co/notification_deactivated.svg

<svg viewBox="0 0 24 24" fill="none" xmlns="http://www.w3.org/2000/svg" height="1em" width="1em">
  <path d="M12.0002 22C10.8957 22 10.0002 21.1046 10.0002 20H14.0002C14.0002 21.1046 13.1048 22 12.0002 22ZM19.5852 21.9L16.6852 19H4.00023V17L6.00023 16V10.5C5.99674 9.82904 6.05769 9.1593 6.18223 8.5L2.61523 4.929L4.02923 3.515L20.9982 20.487L19.5862 21.9H19.5852ZM17.9992 14.659L8.27923 4.938C8.79915 4.5776 9.38337 4.32028 10.0002 4.18V2H14.0002V4.18C16.5792 4.793 18.0002 7.038 18.0002 10.5V14.66L17.9992 14.659Z" fill="black"/>
</svg>

<svg viewBox="0 0 24 24" fill="none" xmlns="http://www.w3.org/2000/svg" height="1em" width="1em">
  <path d="M12 22a2 2 0 0 1-2-2h4a2 2 0 0 1-2 2Zm7.585-.1-2.9-2.9H4v-2l2-1v-5.5a10.57 10.57 0 0 1 .182-2L2.615 4.929 4.03 3.515 21 20.487 19.585 21.9ZM18 14.659 8.28 4.938A4.946 4.946 0 0 1 10 4.18V2h4v2.18c2.58.613 4 2.858 4 6.32v4.16-.001Z" fill="#000"/>
</svg>
